X: 13
T:Astlys Hornpipe. GS.013
T:Ashley's Hornpipe,aka. GS.013
T:Astley's Hornpipe,aka. GS.013
M:4/4
L:1/8
Q:160
S:George Spencer m/s, Leeds,1831
R:Hornpipe
O:England
A:Leeds
H:1831
Z:vmp.Cherri Graebe
K:F major
FGAB cAGF | fefd (d2 c)B | AcAF BdBG | AcAF FEDC | FGAB cAGF |! fefd (d2
c)B | 
AcAF BdBG | F2E2F4 :||: cdef egec | fafd egec |! cdef gedc |
 BAGF EGEC | AcAF BdBG | egec fafd | cfed cBAG | F2 E2 F4 :||
